build/svg/cmd/sc_displaymasterobjects.svg

<?xml version="1.0" encoding="UTF-8" standalone="no"?>
<svg
   xmlns:dc="http://purl.org/dc/elements/1.1/"
   xmlns:cc="http://creativecommons.org/ns#"
   xmlns:rdf="http://www.w3.org/1999/02/22-rdf-syntax-ns#"
   xmlns:svg="http://www.w3.org/2000/svg"
   xmlns="http://www.w3.org/2000/svg"
   xmlns:sodipodi="http://sodipodi.sourceforge.net/DTD/sodipodi-0.dtd"
   xmlns:inkscape="http://www.inkscape.org/namespaces/inkscape"
   viewBox="0 0 16 16"
   version="1.1"
   id="svg8"
   sodipodi:docname="sc_displaymasterobjects.svg"
   inkscape:version="0.92.5 (2060ec1f9f, 2020-04-08)"
   inkscape:export-filename="/home/jupiter007/Libreoffice yaru theme fullcolor/build/cmd/sc_displaymasterobjects.png"
   inkscape:export-xdpi="95"
   inkscape:export-ydpi="95">
  <metadata
     id="metadata14">
    <rdf:RDF>
      <cc:Work
         rdf:about="">
        <dc:format>image/svg+xml</dc:format>
        <dc:type
           rdf:resource="http://purl.org/dc/dcmitype/StillImage" />
      </cc:Work>
    </rdf:RDF>
  </metadata>
  <defs
     id="defs12" />
  <sodipodi:namedview
     pagecolor="#ffffff"
     bordercolor="#666666"
     borderopacity="1"
     objecttolerance="10"
     gridtolerance="10"
     guidetolerance="10"
     inkscape:pageopacity="0"
     inkscape:pageshadow="2"
     inkscape:window-width="1920"
     inkscape:window-height="1011"
     id="namedview10"
     showgrid="true"
     inkscape:zoom="41.7193"
     inkscape:cx="9.5386742"
     inkscape:cy="5.0522465"
     inkscape:window-x="0"
     inkscape:window-y="32"
     inkscape:window-maximized="1"
     inkscape:current-layer="svg8">
    <inkscape:grid
       type="xygrid"
       id="grid827" />
  </sodipodi:namedview>
  <path
     sodipodi:nodetypes="cccscsccccccccscscccccc"
     inkscape:connector-curvature="0"
     id="path4237-1"
     d="m 4.9946169,2.0000001 c -1.2582,0.0145 -2.1788909,-0.0306 -2.9316409,0.384766 C 1.686606,2.592426 1.389745,2.944152 1.2250849,3.382812 1.060415,3.821482 1.000476,5.6576002 1.000476,5.0000001 V 6.488281 11 c 0,0.657609 0.0599,1.178577 0.2246089,1.617189 0.1646801,0.43861 0.4615311,0.788523 0.8378911,0.996092 0.75272,0.415131 1.673541,0.37165 2.9316409,0.386719 h 0.002 6.0048571 0.0039 c 1.25819,-0.0145 2.178891,0.0306 2.931641,-0.384766 0.37637,-0.20766 0.673221,-0.559386 0.837891,-0.998045 C 14.939445,12.178518 14.999524,11.657609 14.999524,11 V 6.466797 5 c 0,-0.6576001 -0.0599,-1.178577 -0.224609,-1.617188 C 14.610235,2.944213 14.313384,2.594279 13.937024,2.3867191 13.184254,1.971589 12.263423,2.01508 11.005333,2 h -0.002 -6.0048571 z"
     style="font-style:normal;font-variant:normal;font-weight:normal;font-stretch:normal;font-size:15px;line-height:125%;font-family:Ubuntu;-inkscape-font-specification:Ubuntu;text-align:center;letter-spacing:0px;word-spacing:0px;writing-mode:lr-tb;text-anchor:middle;display:inline;opacity:0.6;fill:#000000;fill-opacity:1;stroke:none;stroke-width:0.99980211" />
  <path
     inkscape:connector-curvature="0"
     id="path1993"
     d="m 5.9828449,3.027185 c -1.556581,0.0108 -1.10899,-0.01175 -2.658941,0.03877 -0.461229,0.04267 -1.016188,0.206419 -1.15534,0.709967 -0.218994,0.6353459 -0.108414,1.333787 -0.145796,1.981924 -0.0078,2.297084 -0.02297,3.595846 0.02152,5.885197 0.0391,0.461929 0.202551,1.012665 0.698756,1.163665 0.632456,0.225083 1.284144,0.12274 1.935974,0.154299 1.424235,0.0068 0.849563,0.01102 2.27542,0.01131 1.704531,3.49e-4 3.4083881,-0.005 5.1071881,-0.01851 0.511911,-0.01201 1.183699,0.01993 1.584745,-0.405192 0.421097,-0.539783 0.287073,-1.268021 0.322745,-1.903787 0.01187,-2.444322 0.02769,-3.9105119 -0.0219,-6.356211 C 13.897936,3.886577 13.777224,3.425665 13.372077,3.244142 12.703908,2.950045 11.945872,3.076123 11.246156,3.03857 9.491751,3.02677 7.7372839,3.02608 5.9828449,3.02718 Z"
     style="opacity:1;vector-effect:none;fill:#aee3f8;fill-opacity:1;stroke:none;stroke-width:1;stroke-linecap:round;stroke-linejoin:bevel;stroke-miterlimit:4;stroke-dasharray:none;stroke-dashoffset:0;stroke-opacity:1"
     sodipodi:nodetypes="cccccccscccccccc" />
  <circle
     style="opacity:0.6;fill:#000000;fill-opacity:1;fill-rule:evenodd;stroke:#000000;stroke-width:2;stroke-linecap:butt;stroke-linejoin:round;stroke-miterlimit:4;stroke-dasharray:none;stroke-opacity:1"
     id="path831"
     cx="12"
     cy="12"
     r="3" />
  <circle
     r="3"
     cy="12"
     cx="12"
     id="circle833"
     style="opacity:1;fill:#ffffff;fill-opacity:1;fill-rule:evenodd;stroke:none;stroke-width:2;stroke-linecap:butt;stroke-linejoin:round;stroke-miterlimit:4;stroke-dasharray:none;stroke-opacity:1" />
  <path
     d="m 12,10 c -1.104569,0 -2,0.895431 -2,2 0,1.10457 0.895431,2 2,2 1.104569,0 2,-0.89543 2,-2 0.02896,-0.194894 0.02896,-0.392997 0,-0.587891 -0.174008,0.38903 -0.57545,0.625034 -1,0.587891 -0.552285,0 -1,-0.447715 -1,-1 -0.03682,-0.425027 0.200048,-0.826612 0.589844,-1 C 12.39431,9.9708477 12.195534,9.9708477 12,10 Z"
     id="path2"
     inkscape:connector-curvature="0"
     style="fill:#232629"
     sodipodi:nodetypes="csscccccc" />
</svg>

<svg xmlns="http://www.w3.org/2000/svg" viewBox="0 0 16 16"><path d="M4.995 2c-1.259.015-2.18-.03-2.932.385a1.88 1.88 0 00-.838.998C1.06 3.82 1 5.658 1 5v6c0 .658.06 1.179.225 1.617.165.439.462.789.838.996.753.415 1.674.372 2.932.387H11.005c1.259-.015 2.18.03 2.932-.385a1.88 1.88 0 00.838-.998c.164-.438.225-.96.225-1.617V5c0-.658-.06-1.179-.225-1.617a1.875 1.875 0 00-.838-.996c-.753-.415-1.674-.372-2.932-.387H4.998z" style="line-height:125%;-inkscape-font-specification:Ubuntu;text-align:center" font-weight="400" font-size="15" font-family="Ubuntu" letter-spacing="0" word-spacing="0" text-anchor="middle" opacity=".6"/><path d="M5.983 3.027c-1.557.011-1.11-.012-2.66.039-.46.043-1.015.206-1.154.71-.22.635-.109 1.334-.146 1.982-.008 2.297-.023 3.596.021 5.885.04.462.203 1.013.699 1.164.632.225 1.284.122 1.936.154 1.424.007.85.011 2.275.011 1.705 0 3.409-.005 5.108-.018.512-.012 1.183.02 1.584-.405.421-.54.287-1.268.323-1.904.012-2.444.028-3.91-.022-6.356-.05-.402-.17-.863-.575-1.045-.668-.294-1.426-.168-2.126-.205a715.829 715.829 0 00-5.263-.012z" fill="#aee3f8"/><circle cx="12" cy="12" r="3" opacity=".6" fill-rule="evenodd" stroke="#000" stroke-width="2" stroke-linejoin="round"/><circle r="3" cy="12" cx="12" fill="#fff" fill-rule="evenodd"/><path d="M12 10a2 2 0 102 2 2 2 0 000-.588A1 1 0 0113 12a1 1 0 01-1-1 1 1 0 01.59-1 2 2 0 00-.59 0z" fill="#232629"/></svg>
